flaticon/productivity-and-development/label.svg

<svg xmlns="http://www.w3.org/2000/svg" width="32" height="32" viewBox="0 0 24 24">
    <path d="M 10.832031 24 C 10.15625 24 9.523438 23.738281 9.042969 23.257812 L 0.765625 14.980469 C -0.222656 13.992188 -0.222656 12.386719 0.765625 11.402344 L 9.664062 2.5 C 11.90625 0.164062 17.320312 -1.703125 21.523438 2.5 C 24.792969 5.769531 24.792969 11.089844 21.523438 14.359375 L 12.625 23.257812 C 12.144531 23.738281 11.507812 24 10.832031 24 Z M 10.386719 3.21875 L 1.484375 12.121094 C 0.894531 12.710938 0.894531 13.667969 1.484375 14.257812 L 9.765625 22.539062 C 10.335938 23.109375 11.332031 23.109375 11.902344 22.539062 L 20.804688 13.636719 C 23.675781 10.765625 23.675781 6.09375 20.804688 3.21875 C 18.800781 1.214844 14.039062 -0.433594 10.386719 3.21875 Z M 10.386719 3.21875"/>
    <path d="M17.960938 3.59375C16.746094 3.59375 15.761719 4.582031 15.761719 5.796875 15.761719 7.011719 16.746094 7.996094 17.960938 7.996094 19.175781 7.996094 20.160156 7.011719 20.160156 5.796875 20.160156 4.582031 19.175781 3.59375 17.960938 3.59375zM17.960938 6.976562C17.308594 6.976562 16.78125 6.449219 16.78125 5.796875 16.78125 5.144531 17.308594 4.613281 17.960938 4.613281 18.613281 4.613281 19.140625 5.144531 19.140625 5.796875 19.140625 6.449219 18.613281 6.976562 17.960938 6.976562zM5.507812 12.144531C5.507812 12.445312 5.964844 12.527344 6.304688 12.613281 6.644531 12.695312 7.378906 12.90625 7.378906 13.722656 7.378906 14.621094 6.460938 14.808594 6.066406 14.808594 5.496094 14.808594 4.984375 14.597656 4.527344 14.175781L5.007812 13.589844C5.394531 13.929688 5.75 14.101562 6.082031 14.101562 6.226562 14.101562 6.554688 14.03125 6.554688 13.746094 6.554688 13.472656 6.152344 13.363281 5.890625 13.296875 5.472656 13.199219 4.683594 13.027344 4.683594 12.160156 4.683594 11.269531 5.601562 11.09375 5.96875 11.09375 6.207031 11.09375 6.449219 11.132812 6.6875 11.214844 6.925781 11.300781 7.136719 11.414062 7.3125 11.566406L6.90625 12.152344C6.597656 11.914062 6.273438 11.796875 5.941406 11.796875 5.808594 11.796875 5.507812 11.871094 5.507812 12.144531zM10.582031 14.769531L10.246094 13.992188 8.742188 13.992188 8.40625 14.769531 7.554688 14.769531 9.105469 11.175781 9.882812 11.175781 11.433594 14.769531zM9.496094 12.246094L9.042969 13.289062 9.945312 13.289062zM11.851562 14.769531L11.851562 11.175781 12.652344 11.175781 12.652344 14.054688 14.183594 14.054688 14.183594 14.769531zM17.359375 11.175781L17.359375 11.890625 15.570312 11.890625 15.570312 12.628906 17.179688 12.628906 17.179688 13.3125 15.570312 13.3125 15.570312 14.058594 17.417969 14.058594 17.417969 14.769531 14.769531 14.769531 14.769531 11.175781zM17.359375 11.175781"/>
</svg>

<svg xmlns="http://www.w3.org/2000/svg" width="32" height="32" viewBox="0 0 24 24">
    <path d="M10.832 24a2.508 2.508 0 0 1-1.789-.742L.766 14.98a2.53 2.53 0 0 1 0-3.578L9.664 2.5c2.242-2.336 7.656-4.203 11.86 0 3.269 3.27 3.269 8.59 0 11.86l-8.899 8.898c-.48.48-1.117.742-1.793.742zm-.445-20.781L1.484 12.12c-.59.59-.59 1.547 0 2.137l8.282 8.281c.57.57 1.566.57 2.136 0l8.903-8.902c2.87-2.871 2.87-7.543 0-10.418-2.004-2.004-6.766-3.653-10.418 0zm0 0"/>
    <path d="M17.96 3.594a2.202 2.202 0 0 0 0 4.402 2.202 2.202 0 0 0 0-4.402zm0 3.383a1.182 1.182 0 0 1 0-2.363 1.182 1.182 0 0 1 0 2.363zm0 0M5.508 12.145c0 .3.457.382.797.468.34.082 1.074.293 1.074 1.11 0 .898-.918 1.086-1.313 1.086-.57 0-1.082-.211-1.539-.633l.48-.586c.388.34.743.512 1.075.512.145 0 .473-.07.473-.356 0-.273-.403-.383-.664-.45-.418-.097-1.207-.269-1.207-1.136 0-.89.918-1.066 1.285-1.066.238 0 .48.039.718.12.239.087.45.2.625.352l-.406.586c-.308-.238-.633-.355-.965-.355-.132 0-.433.074-.433.348zm0 0M10.582 14.77l-.336-.778H8.742l-.336.778h-.851l1.55-3.594h.778l1.55 3.594zm-1.086-2.524l-.453 1.043h.902zm0 0M11.852 14.77v-3.594h.8v2.879h1.532v.715zm0 0M17.36 11.176v.715h-1.79v.738h1.61v.684h-1.61v.746h1.848v.71H14.77v-3.593zm0 0"/>
</svg>
